media/clay-menu.svg

<svg width="18" height="13" viewBox="0 0 18 13" xmlns="http://www.w3.org/2000/svg"><path d="M0 8.357h4.235v-3.714h-4.235v3.714zm0 4.643h4.235v-3.714h-4.235v3.714zm0-9.286h4.235v-3.714h-4.235v3.714zm5.294 4.643h12.706v-3.714h-12.706v3.714zm0 4.643h12.706v-3.714h-12.706v3.714zm0-13v3.714h12.706v-3.714h-12.706z" style="mix-blend-mode:hard-light" fill="#FFF" fill-rule="evenodd" opacity=".9"/></svg>

<svg width="18" height="13" viewBox="0 0 18 13" xmlns="http://www.w3.org/2000/svg"><path d="M0 8.357h4.235V4.643H0v3.714zM0 13h4.235V9.286H0V13zm0-9.286h4.235V0H0v3.714zm5.294 4.643H18V4.643H5.294v3.714zm0 4.643H18V9.286H5.294V13zm0-13v3.714H18V0H5.294z" style="mix-blend-mode:hard-light" fill="#FFF" fill-rule="evenodd" opacity=".9"/></svg>
